packages/bezier-icons/icons/group-remove.svg

<svg width="24" height="24" viewBox="0 0 24 24" fill="none" xmlns="http://www.w3.org/2000/svg">
<path fill-rule="evenodd" clip-rule="evenodd" d="M9.0002 4.00012C10.1032 4.00012 11.0002 4.89712 11.0002 6.00012C11.0002 7.10312 10.1032 8.00012 9.0002 8.00012C7.8972 8.00012 7.0002 7.10312 7.0002 6.00012C7.0002 4.89712 7.8972 4.00012 9.0002 4.00012ZM9.0002 10.0001C11.2062 10.0001 13.0002 8.20612 13.0002 6.00012C13.0002 3.79412 11.2062 2.00012 9.0002 2.00012C6.7942 2.00012 5.0002 3.79412 5.0002 6.00012C5.0002 8.20612 6.7942 10.0001 9.0002 10.0001ZM17.9342 19.0001C17.7482 17.3261 17.1072 15.7961 16.1342 14.5311C16.1786 14.5282 16.2242 14.5224 16.2697 14.5166L16.2698 14.5166C16.3341 14.5083 16.3984 14.5001 16.4592 14.5001C19.1192 14.5001 21.3932 16.4351 21.8682 19.0001H17.9342ZM14.9402 19.0001H2.07019C2.55819 15.5941 5.50319 13.0001 9.00019 13.0001C12.4972 13.0001 15.4412 15.5941 15.9292 19.0001H14.9402ZM16.4592 12.5001C16.0202 12.5001 15.5792 12.5421 15.1102 12.6271L14.3362 12.7681C12.8372 11.6601 10.9902 11.0001 9.0002 11.0001C4.2692 11.0001 0.324197 14.6941 0.0181973 19.4121C-0.00680265 19.8181 0.139197 20.2231 0.420197 20.5211C0.705197 20.8261 1.1072 21.0001 1.5232 21.0001H14.9402H16.4772H22.4362C22.8572 21.0001 23.2622 20.8231 23.5472 20.5131C23.8272 20.2101 23.9682 19.8031 23.9352 19.3981C23.6272 15.5301 20.3442 12.5001 16.4592 12.5001ZM20.7266 10.7266C20.3621 11.0911 19.7712 11.0911 19.4067 10.7266L17.5 8.81993L15.5933 10.7266C15.2288 11.0911 14.6379 11.0911 14.2734 10.7266C13.9089 10.3621 13.9089 9.77119 14.2734 9.4067L16.1801 7.5L14.2734 5.5933C13.9089 5.22881 13.9089 4.63786 14.2734 4.27337C14.6379 3.90888 15.2288 3.90888 15.5933 4.27337L17.5 6.18007L19.4067 4.27337C19.7712 3.90888 20.3621 3.90888 20.7266 4.27337C21.0911 4.63786 21.0911 5.22881 20.7266 5.5933L18.8199 7.5L20.7266 9.4067C21.0911 9.77119 21.0911 10.3621 20.7266 10.7266Z" fill="#313234"/>
</svg>

<svg xmlns="http://www.w3.org/2000/svg" width="24" height="24" fill="none" viewBox="0 0 24 24"><path fill="#313234" fill-rule="evenodd" d="M9 4c1.103 0 2 .897 2 2s-.897 2-2 2-2-.897-2-2 .897-2 2-2m0 6c2.206 0 4-1.794 4-4s-1.794-4-4-4-4 1.794-4 4 1.794 4 4 4m8.934 9a8.93 8.93 0 0 0-1.8-4.469q.067-.006.136-.014.096-.015.19-.017c2.66 0 4.933 1.935 5.408 4.5zm-2.994 0H2.07A7.015 7.015 0 0 1 9 13a7.014 7.014 0 0 1 6.93 6zm1.52-6.5c-.44 0-.88.042-1.35.127l-.774.141A8.96 8.96 0 0 0 9 11C4.27 11 .324 14.694.018 19.412a1.5 1.5 0 0 0 .402 1.11c.285.304.687.478 1.103.478h20.914c.42 0 .825-.177 1.11-.487.28-.303.421-.71.388-1.115-.308-3.868-3.59-6.898-7.476-6.898m4.267-1.773a.933.933 0 0 1-1.32 0L17.5 8.82l-1.907 1.907a.933.933 0 1 1-1.32-1.32L16.18 7.5l-1.907-1.907a.933.933 0 1 1 1.32-1.32L17.5 6.18l1.907-1.907a.933.933 0 1 1 1.32 1.32L18.82 7.5l1.907 1.907a.933.933 0 0 1 0 1.32" clip-rule="evenodd"/></svg>
